X: 9275
T: Dance By The Old Sally Tree, The
R: jig
M: 6/8
K: Gmajor
B/A/|GBd dBA|GGA BDE|=FDC B,2C|DBc A2 B/A/|
GBd dBA|GGA BDE|=FDC B,2C|DGG G2||
B/A/|GBd dde|=fdB c2 d/c/|BBG AdB|GAF D2 B/c/|
ddB cAG|FGA {B/}c2 G/E/|=FDC B,2C|DGG G2||

